X: 2092
T: Athol Brose
R: strathspey
M: 4/4
K: Dmixolydian
2 d<df>d e>^cd>A|c>dc<G E>GE<C||
F>D (3DDD E>CD<G|F>D (3DDD (3B^cd A>G|
D>d (3dd^c d>ed<=c|A>d (3dde f>de<c|
2 d>ef<a (3gfe d>B|c<ec>A G>cE<G||

